icon/cg/push-chevron-up-o.svg

<svg viewBox="0 0 24 24" fill="none" xmlns="http://www.w3.org/2000/svg" height="1em" width="1em">
  <path fill-rule="evenodd" clip-rule="evenodd" d="M12 3C7.02944 3 3 7.02944 3 12C3 16.9706 7.02944 21 12 21C16.9706 21 21 16.9706 21 12C21 7.02944 16.9706 3 12 3ZM12 1C5.92487 1 1 5.92487 1 12C1 18.0751 5.92487 23 12 23C18.0751 23 23 18.0751 23 12C23 5.92487 18.0751 1 12 1ZM8 10V8H16V10H8ZM16.2427 15.2974L14.8285 16.7116L12 13.8832L9.17164 16.7116L7.75743 15.2974L12.0001 11.0547L16.2427 15.2974Z" fill="currentColor"/>
</svg>

<svg width="24" height="24" fill="none" xmlns="http://www.w3.org/2000/svg"><path fill-rule="evenodd" clip-rule="evenodd" d="M12 3a9 9 0 1 0 0 18 9 9 0 0 0 0-18Zm0-2C5.925 1 1 5.925 1 12s4.925 11 11 11 11-4.925 11-11S18.075 1 12 1Zm-4 9V8h8v2H8Zm8.243 5.297-1.414 1.415L12 13.883l-2.828 2.829-1.415-1.415L12 11.055l4.243 4.242Z" fill="currentColor"/></svg>
